projects/ccf-eui/src/assets/icons/organ-icons/organ-icon-uterus.svg

<svg width="64" height="64" viewBox="0 0 64 64" fill="currentColor" xmlns="http://www.w3.org/2000/svg">
<g clip-path="url(#clip0_1795_447)">
<path d="M50.306 19.2265C46.8222 19.5964 40.374 20.619 40.9366 27.5164C41.1529 30.9107 40.2874 34.2833 38.4914 37.1554C36.9767 39.4618 34.8346 40.3104 34.1638 41.6594C33.493 43.0084 33.9257 49.0573 35.1591 50.3628C36.3925 51.6683 35.8948 58 35.8948 58H38.275C38.5996 55.2584 38.7078 52.4734 38.6429 49.71C38.7511 42.0728 47.969 24.6008 52.275 22.9472C54.612 21.881 57.2086 21.5329 59.7403 21.9028V20.8148C56.6893 19.7922 53.5084 19.27 50.306 19.2265Z" />
<path d="M48.6182 13.2426C42.1267 12.3505 38.8377 8.15117 32.5193 9.17381C26.2009 8.15117 22.8903 12.22 16.4204 13.2426C12.3308 14.113 8.15456 14.4394 4 14.1783L4.17311 17.8554C9.9289 15.8537 28.2133 14.8745 32.6708 14.8745C37.1283 14.8745 54.1576 15.8537 59.8269 17.7902L60 14.3958C56.17 14.3958 52.3617 14.0042 48.6182 13.2426Z" />
<path d="M12.7636 22.8819C17.0913 24.5355 26.2659 42.0075 26.3958 49.6448C26.3092 52.4081 26.4174 55.1932 26.7636 57.9347H29.1006C29.1006 57.9347 28.7976 51.4072 29.8146 50.2975C30.8316 49.1878 31.5024 43.0084 30.8316 41.5941C30.1608 40.1798 28.0187 39.4183 26.504 37.0901C24.6647 34.2398 23.7992 30.8455 24.0156 27.4512C24.5565 20.619 18.1299 19.5964 14.6894 19.2265C11.1624 19.27 7.65698 19.7922 4.25977 20.7931V21.5111C7.1593 21.2935 10.0805 21.7504 12.7636 22.8819Z" />
</g>
<defs>
<clipPath id="clip0_1795_447">
<rect width="56" height="49"  transform="translate(4 9)"/>
</clipPath>
</defs>
</svg>

<svg xmlns="http://www.w3.org/2000/svg" width="64" height="64" fill="currentColor" viewBox="0 0 64 64"><g clip-path="url(#a)"><path d="M50.306 19.227c-3.484.37-9.932 1.392-9.37 8.29a16.25 16.25 0 0 1-2.445 9.638c-1.514 2.307-3.656 3.155-4.327 4.504-.671 1.35-.238 7.398.995 8.704 1.233 1.305.736 7.637.736 7.637h2.38c.325-2.742.433-5.527.368-8.29.108-7.637 9.326-25.11 13.632-26.763a13.34 13.34 0 0 1 7.465-1.044v-1.088a31 31 0 0 0-9.434-1.588M48.618 13.243c-6.491-.893-9.78-5.092-16.099-4.07-6.318-1.022-9.629 3.047-16.099 4.07A45.9 45.9 0 0 1 4 14.178l.173 3.677c5.756-2.001 24.04-2.98 28.498-2.98 4.457 0 21.487.979 27.156 2.915L60 14.396c-3.83 0-7.638-.392-11.382-1.153M12.764 22.882c4.327 1.653 13.502 19.126 13.632 26.763a53 53 0 0 0 .368 8.29H29.1s-.303-6.528.714-7.638 1.687-7.289 1.017-8.703-2.813-2.176-4.328-4.504a15.93 15.93 0 0 1-2.488-9.639c.54-6.832-5.886-7.855-9.327-8.224a38.6 38.6 0 0 0-10.43 1.566v.718c2.9-.217 5.822.24 8.505 1.37"/></g><defs><clipPath id="a"><path d="M4 9h56v49H4z"/></clipPath></defs></svg>
